X: 1
T: Jingle Bells   [G]
C: J. Pierpont
Z: 2018 John Chambers <jc:trillian.mit.edu>
M: 4/4
L: 1/8
K: G
"C"|:\
"G"B2B2 B4 | B2B2 B4 | B2d2 G3A |\
B4 z4 | "C"c2c2 c3c | "G"c2B2 B2BB |\
[1 B2A2 A2B2 | "D7"A4 d4 :|[2 "D7"d2d2 c2A2 | "G"G6 |]
"D7"D2 \
"V"|:\
"G"D2B2 A2G2 | D4 z2D-D | D2B2 A2G2 | "C"E4 z4 | E2c2 B2A2 |\
[1 "D7"F4 z4 | d2d2 c2A2 | "G"B4 z4 :|\
[2 "G"d2d2 d2d2 | "D7"e2d2 c2A2 | "G"G4 "D7"d4 |]
